storage/app/icons/phosphoricons/bold/cardholder-bold.svg

<svg xmlns="http://www.w3.org/2000/svg" fill="currentColor" viewBox="0 0 256 256"><path d="M208 44H48a28 28 0 0 0-28 28v112a28 28 0 0 0 28 28h160a28 28 0 0 0 28-28V72a28 28 0 0 0-28-28M48 68h160a4 4 0 0 1 4 4v16h-52a12 12 0 0 0-12 12 20 20 0 0 1-40 0 12 12 0 0 0-12-12H44V72a4 4 0 0 1 4-4m160 120H48a4 4 0 0 1-4-4v-72h41.66a44 44 0 0 0 84.68 0H212v72a4 4 0 0 1-4 4"/></svg>

<svg xmlns="http://www.w3.org/2000/svg" viewBox="0 0 256 256" fill="currentColor"><path d="M208,44H48A28,28,0,0,0,20,72V184a28,28,0,0,0,28,28H208a28,28,0,0,0,28-28V72A28,28,0,0,0,208,44ZM48,68H208a4,4,0,0,1,4,4V88H160a12,12,0,0,0-12,12,20,20,0,0,1-40,0A12,12,0,0,0,96,88H44V72A4,4,0,0,1,48,68ZM208,188H48a4,4,0,0,1-4-4V112H85.66a44,44,0,0,0,84.68,0H212v72A4,4,0,0,1,208,188Z"/></svg>
